X: 0802
T: ARTHUR'S SEAT, A REEL
B: Oliver Ditson "The Boston Collection of Instrumental Music" 1910 p.80 #2
F: http://conquest.imslp.info/files/imglnks/usimg/8/8f/IMSLP175643-PMLP309456-bostoncollection00bost_bw.pdf
%: 2012 John Chambers <jc:trillian.mit.edu>
M: 4/4
L: 1/8
K: D
|: DFAd fedf | efgf e/e/ee2 | DFAd fedc | dBAF D/D/DD2 :|\
|: BAdA BAGF | GBAF E/E/EE2 | BAdA BAGF | GBAF D/D/DD2 :|
|: dfAf egAg | fgaf e/e/ee2 | dfAf egAg | fgaf d/d/dd2 :|\
|: BAdA BAGF | GBAG E/E/EE2 | BAdA BAGF | GBAG D/D/DD2 :|

%%sep 1 1 500
%%sep 1 1 500
